X: 07053
T: HIGH ROAD TO HOMER
C: Bob McQuillen 5 June 89
B: Bob's Note Book 7 #53
%R: reel
Z: 2020 John Chambers <jc:trillian.mit.edu>
M: C
L: 1/8
K: A
af \
| e2ce fecB | AcBA F2AF | EFAc  BAce | faec B2af |
| e2ce fecB | AcBA cBAF | EFAc  ecaf | ecBc A2  :|
|: Ac \
| e2ce feaf | efec f2Ac | e2ce feaf | ecAc B2AB |
| cecA BAcB | AcBA F2EF | Acea feaf | ecBc A2  :|
%%begintext align
%% Last February I FLU up to
%% Homer, AK. to play music for Renn Tolman and
%% Mary Criswold, and stayed in bed for 2 days getting
%% rid of the damn thing - I didn't do much playing, let me
%% tell you!
%%endtext
